X:105
T:Life A Bumper,1st Part. JBs.105
S:Jas.Blackshaw MS, 1837, N.Shropshire
A:North Shropshire
Z:T. Weatherall 2006
M:3/4
L:1/8
Q:3/4=40
R:Air
K:F
f4c2|A2F2z2|(B2A2d2)|c2(de)f2|g2f2e2|f4z2|f4g2|a2g2z2|g4^f2|!
g2d2g2|e4c2|f>ed>ef>d|g2c2d2|e2z2z2|\
z2g2g2|a4g2|f2e2d2â€³not dotted in MSâ€|c6:|!
|:c4g2|e4c2|d>cd2e2f2|f6|f6|f6|g4f2|e2e2e2|e3 eee|f2c2c2|c3c f_e|!
d2d2d2|d3d(gf)|{f}e6|f4f2|d3ef2|{a}g2f2e2|f6:|!
M:4/4
|:â€Allegroâ€ABc zd/|efez|fg ef/g/|fefz|c_b/cc|ag/f/ ee/c/|!
(g4|g)z za/g/|f2z/ d/g/f/|e/e/ a/z d/g|\
z/c/f/f/[=B2f2]fg/f/e f/(g/4a/4)|edc2:|!
|:g>f e/d/c/B/|Azz g/f/|e/c/d/e/ fc/c/|\
c/A/B/c/ dcef|e4f>e f(c/d/)|{f}_ed/c/dz|!
g^f/g d/e/|{g}fe/d/ eg/f/|e/d/c/B/ Az|\
z/e/e/e/ fz|d2f2|eff2|e>ef2:|

